X:418
T:Himno de San Timoteo (MQ 060)
C:Tradicional
S:Msica Tradicional Asturiana, (C) Tello & Tito. Asturies, 2001.
S:http://pagina.de/MusTradAst <telloytito@asturies.org>
N:Es el himno del popular patrono de L.luarca.
N:Se canta el da de la fiesta del Santo cuando se sube obaja del prado de la romera, tambin lo suele tocar la banda de msica de L.luarca y los grupos de gaitas de la zona.
N:Yo lo aprend de Pedro Fernndez, componente del grupo de gaitas "Acordanza".
A:Asturies
O:L.luarca
Z:Manolo Quirs 060
M:2/4
L:1/8
Q:1/4=100
K:C
|{GAB}c z {GAB}c z|{GAB}c z G2|
|: B2 A>G|A2 F2|G4-|G2 G2|F4-|F2 A2|G4-|G2 G2|
B2 A>G|A2 F2|G4-|G2 G2|F4|G4|E4|E z3|
z (E CA)|G2 z2|z2 GA|B2 c2|B2 (3ABA|G>F E/D/E/F/|G2 z2|z E CG|
F2 z2|z2 FG|B2 A2|G2 (3FGF|E>F G/A/G/F/|E2 z2|z E CA|G2 z2|
z2 (AB)|_B2 d2|c2 (3_BcB|A>_B A/G/A/B/|A2 (F>G)|A3 B|(A3 B)|(AG) Gc|
(3BcB (3ABA|G4|G2 (3FGF|ED/E/ F/G/A/B/|c z3|z>G G2|z>A A2|z>G G>c|
G z3|z>G G2|z>A A2|G4|(3GCD (3EFG|AA AA|B3 A|(AG) GF|
G4|(GF) FE|F4|(AG) GF|G4|AA AA|B3 A|(AG) GF|G4|[1 G2 A2|
F2 G2|E4|E z G2 :|[2 G2 G2|A2 B2|c4|c z C>C|C z3||
